X:5686
T:Gan Ainm
R:Reel
C:
S:
H:
N:
D:Clare FM Broadcast
Z:Adrian Scahill
M:4/4
L:1/8
K:D
B,EE2 GFEG|FDDC DEFA|(3BcB AF G2dB|AFDF GEED:||\
Beed e2fd|(3efe fd edBd|d2 dc defe|dBAF GEE2|\
Beed e2fd|(3efe fd edBd|dBAF G2Bc|dBAF GEFD||\
